X: 1438
T: Ne Günah Etse Açılmaz...
C: Alâeddin Yavaşca
O: Turkey
F: http://compmusic.upf.edu/node/140
N: hicaz--sarki--aksak--ne_gunah--alaeddin_yavasca
N: makam= hicaz
N: form= sarki
N: usul= aksak = 9/8
M: 9/8
L: 1/16
K: C _7/8B ^f ^c 
Q: 1/4=126
%%MIDI tuningsystem comma53
A/B/A/G/A2 B/c/B/A/B2 d4 c2B2 A2 | \
w:  ARANAĞME  | 
A4AB G2c2 BAA6  | 
w:   | 
d4 f2g2 =f2e2 efed dc | d6 A2B2 c2d4z2  | \
w:   |   | 
g3/2=f/ef e2g2 f3/2e/de d4 f2 | 
w:   | 
e2 d2c2 d2cB BAB2 A2G2  | A2B2 c2A2 B2c2 d2cB BA | 
w:   |   | 
A6 G2c2 BAA6  | A/B/A/G/A2 B/c/B/A/B2 d4 c2B2 A2 | \
w:   |  ARANAĞME  | 
A4AB G2c2 BAA6  | 
w:   | 
d4 f2g2 =f2e2 efed dc | d6 A2B2 c2d4z2  | \
w:   |   | 
g3/2=f/ef e2g2 f3/2e/de d4 f2 | 
w:   | 
e2 d2c2 d2cB BAB2 A2G2  | A2B2 c2A2 B2c2 d2cB BA | 
w:   |   | 
A16z2  | A4 z2cd d4 e2d2 c2 | =f2 edcB BAA3GA2 B2c2  | 
w:   |  *  Ne  gü nah   |  et *  *  se  *  a *  çıl *  maz   | 
A4 z2{=f}ee/d/ d4 e2d2 c2 | =B2 {c}BAA2 Bcd4=f3/2e/ dec_7/8B  | 
w:  *  *  i ki  *  gön lün   |  *  *  *  *  *  a ra sı   SAZ  | 
A4 z2cd d4 e2d2 c2 | =f2 edcB BAA3GA2 B2c2  | \
w:  *  Ne  gü nah   |  et *  *  se  *  a *  çıl *  maz   | 
A4 z2aa/g/ f3/2e/de f2g2 fe | 
w:  *  i ki  *  gön *  *  *  lün   | 
e=b agg^1/4f f/g/f/e/e4ef edgf/e/  | \
w:  *  *  *  *  *  *  a *  ra *  sı   SAZ  | 
e4 z2dd f4 g2=f2 e2 | 
w:  *  Ne  gün  ah   | 
e=f edde dcf4ed c2z2  | d4 d2=f2 edcB A4 AB | 
w:  et *  *  *  se  *  ka *  nar   |  dil de ki  fir *  *  *  kat   | 
AB AG^3/4FG A/B/A/G/G4B4Ac  | B4 z2dc/B/ A4 A2B2 cd | 
w:  *  *  *  *  *  *  ya *  ra *  sı  ah   |  *  ne  gün  *  ah   | 
ec2BcB BAA4AB cdef  | g2=fe f2ed efed cdcB AG | 
w:  et *  *  se  *  ka *  nar   |  dil *  *  de ki  *  fir *  *  *  kat   | 
ed2ccB B/c/B/A/A4e=f ed^fg  | a4 z2ga a4 =ba=c'b ba | 
w:  *  *  *  *  *  ya *  ra *  sı   SAZ  |  *  Di le rim  bin   | 
a2 (3gfg=b2 agg^1/4f fee4g1/4f3/4e  | \
w:  *  *  *  *  be ter  *  ol *  *  *  sun   | 
d4 z2e=f f2e2 g2f2 e2 | 
w:  *  kim_ a yıp *  lar  | 
e=b agg=f f/g/f/e/e4ef ed^fg  | a4 z2ga a4 =ba=c'b ba | 
w:  *  *  *  *  *  *  sa  *  be *  ni   SAZ  |  *  Di le rim  bin   | 
a2 (3gfg=b2 agg^1/4f fee4g1/4f3/4e  | \
w:  *  *  *  *  be ter  *  ol *  *  *  sun   | 
d4 z2e=f f2e2 g2f2 e2 | 
w:  *  kim_ a yıp *  lar  | 
e=b agg=f f/g/f/e/e4ef edgf/e/  | \
w:  *  *  *  *  *  *  sa  *  be *  ni   SAZ  | 
e4 z2dd f4 g2=f2 e2 | 
w:  *  Ne  gün  ah   | 
e=f edde dcf4ed c2z2  | d4 d2=f2 edcB A4 AB | 
w:  et *  *  *  se  *  ka *  nar   |  dil de ki  fir *  *  *  kat   | 
AB AG^3/4FG A/B/A/G/G4B4Ac  | B4 z2dc/B/ A4 A2B2 cd | 
w:  *  *  *  *  *  *  ya *  ra *  sı  ah   |  *  ne  gün  *  ah   | 
ec2BcB BAA4AB cdef  | g2=fe f2ed efed cdcB AG | 
w:  et *  *  se  *  ka *  nar   |  dil *  *  de ki  *  fir *  *  *  kat   | 
ed2ccB B/c/B/A/A3=fed cBA8z2 |
w:  *  *  *  *  *  ya *  ra *  sı SAZ KARAR  | 


